X:10758
T:Mickey Chewing Bubblegum
M:2/4
L:1/8
R:Polka
K:D maj
|: a2 a>f | ec a>f | ec a>f | ec BA |
| a2 a>f | ec a2 | ce BB/2c/2 | BA A2 :|
|: B | ce ec | df fd | ce eA/2B/2 | cB BA/2B/2 |
| ce ec | df f2 | ec B>c | BA A2 :|
